static/assets/images/exchanges/gate.svg

<svg width="258" height="256" viewBox="0 0 258 256" fill="none" xmlns="http://www.w3.org/2000/svg">
<path fill-rule="evenodd" clip-rule="evenodd" d="M129.065 198.389C90.1364 198.389 58.5805 166.872 58.5805 128C58.5805 89.1282 90.1364 57.6105 129.065 57.6105V0C58.2748 0 0.893555 57.3049 0.893555 128C0.893555 198.695 58.2748 256 129.046 256C199.818 256 257.199 198.695 257.199 128H199.531C199.531 166.872 167.975 198.389 129.046 198.389H129.065Z" fill="#2177FF"/>
<path fill-rule="evenodd" clip-rule="evenodd" d="M129.046 128H199.531V57.5914H129.046V128Z" fill="#14E0A1"/>
</svg>

<svg xmlns="http://www.w3.org/2000/svg" fill="none" viewBox="0 0 258 256"><path fill="#2177FF" fill-rule="evenodd" d="M129.065 198.389c-38.929 0-70.484-31.517-70.484-70.389s31.555-70.39 70.484-70.39V0C58.275 0 .894 57.305.894 128s57.38 128 128.152 128 128.153-57.305 128.153-128h-57.668c0 38.872-31.556 70.389-70.485 70.389z" clip-rule="evenodd"/><path fill="#14E0A1" fill-rule="evenodd" d="M129.046 128h70.485V57.591h-70.485z" clip-rule="evenodd"/></svg>
